X: 9368
T: Dancing Rose, The
R: waltz
M: 3/4
K: Cmajor
+p+ z2 D3 c|B3 A G ^F|G3 A B D|[G2B2] G A G/ E3/2|
D3 B c/ B3/2|A3 ^G A/ B3/2|c3 B c D|E2 G2 ^F2|
E3 B D c|B3 A G ^F|G3 A B D|G2 G A G E|D3 ^C D ^D|
E2 A3 G|^F/ G F/ E2 F2|G3 ^F G A|G2 ^F2 =F2|
E/ F E/ D2 E2|F/ G F/ E2 F2|G4B4] [GB] [AB]|
[G3B3] ^F G ^G|A2 F2 D/ ^C c/|B/ c B/ A2 B2|c3 B c A|
G/ A G/ ^F2 =F2|E/ F E/ D2 E2|F/ G F/ E F3|[G4B4] [GB] [AB]|
[G3B3] ^F G ^G|A2 F2 D c|B/ c B/ A2 B2|c3 B c/ E3/2|
D3 B c A|B3 A G ^F|G3 A B D|[G2B2] G A G/ E3/2|
D3 B c/ B3/2|A3 ^G A/ B3/2|c3 B c D|E2 G2 ^F2|
E3 B D c|B3 A G ^F|G3 A B D|G2 G A G E|D3 ^C D ^D|
E2 A3 G|^F/ G F/ E2 F2|G3 ^F G A|G2 ^F2 =F2|
E/ F E/ D2 E2|F/ G F/ E2 F2|[G4B4] [GB] [AB]|
[G3B3] ^F G ^G|A2 F2 D/ ^C c/|B/ c B/ A2 B2|
c3 B c A|G/ A G/ ^F2 =F2|E/ F E/ D2 E2|
F/ G F/ E F3|[G4B4] [GB] [AB]|[G3B3] ^F G ^G|
A2 F2 D c|B/ c B/ A2 B2|c3 B c/ E3/2|D3 B c A|
G E D c B/ A3/2|G6|z6||

